;Generated with Cura_SteamEngine 15.05
M140 S50 ; Set bed temperature
M104 T0 S200 ; Set extruder temperature
; Default start code
G28 ; Home extruder
M851 Z-9.8 ; Y offset
G29 ; Nevellieren
G1 Z15 F100
M107 ; Turn off fan
G90 ; Absolute positioning
G82 ; Extruder in absolute mode
G92 E0 ; Reset extruder position
M190 S50 ; Wait for bed to reach temperature
M109 T0 S200 ; Wait for all used extruders to reach temperature
;Layer count: 125
;LAYER:0
M107
G0 F7200 X75.734 Y77.726 Z0.300
;TYPE:SKIRT
G1 F1800 X78.180 Y75.859 E0.15352
G1 X80.991 Y74.704 E0.30514
G1 X83.307 Y74.400 E0.42167
G1 X136.703 Y74.400 E3.08561
G1 X139.019 Y74.708 E3.20217
G1 X141.839 Y75.868 E3.35430
G1 X144.281 Y77.743 E3.50790
G1 X146.140 Y80.180 E3.66082
G1 X147.287 Y82.972 E3.81141
G1 X147.600 Y85.287 E3.92796
G1 X147.600 Y134.716 E6.39398
G1 X147.287 Y137.021 E6.51003
G1 X146.138 Y139.829 E6.66140
G1 X144.267 Y142.267 E6.81472
G1 X141.829 Y144.138 E6.96804
G1 X139.021 Y145.287 E7.11941
G1 X136.716 Y145.600 E7.23546
G1 X83.287 Y145.600 E9.90105
G1 X80.972 Y145.287 E10.01759
G1 X78.176 Y144.138 E10.16840
G1 X75.740 Y142.276 E10.32137
G1 X73.861 Y139.829 E10.47530
G1 X72.704 Y137.002 E10.62769
G1 X72.400 Y134.695 E10.74378
G1 X72.400 Y85.307 E13.20776
G1 X72.705 Y82.980 E13.32485
G1 X73.868 Y80.166 E13.47675
G1 X75.734 Y77.726 E13.63000
G0 F7200 X76.019 Y78.012
G1 F1800 X78.380 Y76.209 E13.77821
G1 X81.095 Y75.094 E13.92464
G1 X83.333 Y74.800 E14.03726
G1 X136.676 Y74.800 E16.69855
G1 X138.914 Y75.097 E16.81118
G1 X141.638 Y76.218 E16.95814
G1 X143.995 Y78.028 E17.10641
G1 X145.790 Y80.380 E17.25402
G1 X146.898 Y83.077 E17.39948
G1 X147.200 Y85.314 E17.51210
G1 X147.200 Y134.689 E19.97543
G1 X146.898 Y136.917 E20.08760
G1 X145.789 Y139.628 E20.23373
G1 X143.981 Y141.981 E20.38178
G1 X141.628 Y143.789 E20.52982
G1 X138.917 Y144.898 E20.67595
G1 X136.689 Y145.200 E20.78812
G1 X83.314 Y145.200 E23.45101
G1 X81.077 Y144.898 E23.56363
G1 X78.377 Y143.789 E23.70925
G1 X76.025 Y141.991 E23.85695
G1 X74.210 Y139.628 E24.00561
G1 X73.094 Y136.899 E24.15270
G1 X72.800 Y134.669 E24.26492
G1 X72.800 Y85.333 E26.72630
G1 X73.095 Y83.084 E26.83947
G1 X74.218 Y80.367 E26.98614
G1 X76.019 Y78.012 E27.13405
G1 F6000 E22.13405
G0 F7200 X83.721 Y85.719
;TYPE:WALL-INNER
G1 F6000 E27.13405
G1 F1800 X83.801 Y85.658 E27.13907
G1 X83.896 Y85.619 E27.14419
G1 X84.040 Y85.600 E27.15144
G1 X135.961 Y85.600 E29.74179
G1 X136.103 Y85.619 E29.74894
G1 X136.199 Y85.659 E29.75413
G1 X136.279 Y85.720 E29.75914
G1 X136.341 Y85.801 E29.76423
G1 X136.380 Y85.896 E29.76936
G1 X136.400 Y86.043 E29.77676
G1 X136.400 Y133.956 E32.16715
G1 X136.380 Y134.105 E32.17465
G1 X136.342 Y134.198 E32.17966
G1 X136.279 Y134.279 E32.18478
G1 X136.198 Y134.342 E32.18990
G1 X136.105 Y134.380 E32.19491
G1 X135.956 Y134.400 E32.20241
G1 X84.043 Y134.400 E34.79236
G1 X83.896 Y134.380 E34.79976
G1 X83.801 Y134.341 E34.80489
G1 X83.719 Y134.278 E34.81005
G1 X83.657 Y134.198 E34.81510
G1 X83.619 Y134.104 E34.82015
G1 X83.600 Y133.960 E34.82740
G1 X83.600 Y86.040 E37.21814
G1 X83.619 Y85.898 E37.22529
G1 X83.659 Y85.800 E37.23057
G1 X83.721 Y85.719 E37.23566
G0 F7200 X84.011 Y85.200
;TYPE:WALL-OUTER
G1 F1800 X135.991 Y85.200 E39.82895
G1 X136.205 Y85.228 E39.83972
G1 X136.399 Y85.308 E39.85019
G1 X136.567 Y85.437 E39.86075
G1 X136.691 Y85.600 E39.87097
G1 X136.770 Y85.794 E39.88142
G1 X136.800 Y86.012 E39.89240
G1 X136.800 Y133.988 E42.28593
G1 X136.770 Y134.205 E42.29686
G1 X136.692 Y134.398 E42.30725
G1 X136.564 Y134.564 E42.31770
G1 X136.398 Y134.692 E42.32816
G1 X136.205 Y134.770 E42.33855
G1 X135.988 Y134.800 E42.34948
G1 X84.012 Y134.800 E44.94257
G1 X83.794 Y134.770 E44.95355
G1 X83.600 Y134.691 E44.96400
G1 X83.436 Y134.566 E44.97429
G1 X83.307 Y134.398 E44.98485
G1 X83.228 Y134.205 E44.99526
G1 X83.200 Y133.989 E45.00613
G1 X83.200 Y86.011 E47.39976
G1 X83.228 Y85.794 E47.41067
G1 X83.309 Y85.599 E47.42121
G1 X83.435 Y85.434 E47.43157
G1 X83.600 Y85.308 E47.44192
G1 X83.794 Y85.228 E47.45239
G1 X84.011 Y85.200 E47.46331
G0 F7200 X84.326 Y85.740
;TYPE:SKIN
G1 F1800 X132.845 Y134.259 E50.88659
G0 F7200 X132.279 Y134.259
G1 F1800 X83.830 Y85.810 E54.30492
G0 F7200 X83.739 Y86.285
G1 F1800 X131.714 Y134.259 E57.68978
G0 F7200 X131.148 Y134.259
G1 F1800 X83.739 Y86.851 E61.03471
G0 F7200 X83.739 Y87.416
G1 F1800 X130.582 Y134.259 E64.33974
G0 F7200 X130.017 Y134.259
G1 F1800 X83.739 Y87.982 E67.60486
G0 F7200 X83.739 Y88.548
G1 F1800 X129.451 Y134.259 E70.83006
G0 F7200 X128.885 Y134.259
G1 F1800 X83.739 Y89.113 E74.01535
G0 F7200 X83.739 Y89.679
G1 F1800 X128.320 Y134.259 E77.16075
G0 F7200 X127.754 Y134.259
G1 F1800 X83.739 Y90.245 E80.26621
G0 F7200 X83.739 Y90.810
G1 F1800 X127.188 Y134.259 E83.33177
G0 F7200 X126.623 Y134.259
G1 F1800 X83.739 Y91.376 E86.35743
G0 F7200 X83.739 Y91.942
G1 F1800 X126.057 Y134.259 E89.34316
G0 F7200 X125.491 Y134.259
G1 F1800 X83.739 Y92.507 E92.28899
G0 F7200 X83.739 Y93.073
G1 F1800 X124.925 Y134.259 E95.19488
G0 F7200 X124.360 Y134.259
G1 F1800 X83.739 Y93.639 E98.06088
G0 F7200 X83.739 Y94.205
G1 F1800 X123.794 Y134.259 E100.88694
G0 F7200 X123.228 Y134.259
G1 F1800 X83.739 Y94.770 E103.67310
G0 F7200 X83.739 Y95.336
G1 F1800 X122.663 Y134.259 E106.41937
G0 F7200 X122.097 Y134.259
G1 F1800 X83.739 Y95.902 E109.12569
G0 F7200 X83.739 Y96.467
G1 F1800 X121.531 Y134.259 E111.79212
G0 F7200 X120.966 Y134.259
G1 F1800 X83.739 Y97.033 E114.41866
G0 F7200 X83.739 Y97.599
G1 F1800 X120.400 Y134.259 E117.00525
G0 F7200 X133.411 Y134.259
G1 F1800 X84.891 Y85.740 E120.42856
G0 F7200 X85.457 Y85.740
G1 F1800 X133.976 Y134.259 E123.85184
G0 F7200 X134.542 Y134.259
G1 F1800 X86.023 Y85.740 E127.27512
G0 F7200 X86.588 Y85.740
G1 F1800 X135.108 Y134.259 E130.69843
G0 F7200 X135.673 Y134.259
G1 F1800 X87.154 Y85.740 E134.12171
G0 F7200 X87.720 Y85.740
G1 F1800 X136.166 Y134.186 E137.53984
G0 F7200 X136.259 Y133.713
G1 F1800 X88.285 Y85.740 E140.92463
G0 F7200 X88.851 Y85.740
G1 F1800 X136.259 Y133.148 E144.26952
G0 F7200 X136.259 Y132.582
G1 F1800 X89.417 Y85.740 E147.57447
G0 F7200 X89.982 Y85.740
G1 F1800 X136.259 Y132.016 E150.83953
G0 F7200 X136.259 Y131.451
G1 F1800 X90.548 Y85.740 E154.06469
G0 F7200 X91.114 Y85.740
G1 F1800 X136.259 Y130.885 E157.24991
G0 F7200 X136.259 Y130.319
G1 F1800 X91.679 Y85.740 E160.39524
G0 F7200 X92.245 Y85.740
G1 F1800 X136.259 Y129.754 E163.50066
G0 F7200 X136.259 Y129.188
G1 F1800 X92.811 Y85.740 E166.56615
G0 F7200 X93.376 Y85.740
G1 F1800 X136.259 Y128.622 E169.59174
G0 F7200 X136.259 Y128.057
G1 F1800 X93.942 Y85.740 E172.57744
G0 F7200 X94.508 Y85.740
G1 F1800 X136.259 Y127.491 E175.52320
G0 F7200 X136.259 Y126.925
G1 F1800 X95.074 Y85.740 E178.42902
G0 F7200 X95.639 Y85.740
G1 F1800 X136.259 Y126.359 E181.29495
G0 F7200 X136.259 Y125.794
G1 F1800 X96.205 Y85.740 E184.12097
G0 F7200 X96.771 Y85.740
G1 F1800 X136.259 Y125.228 E186.90706
G0 F7200 X136.259 Y124.662
G1 F1800 X97.336 Y85.740 E189.65326
G0 F7200 X97.902 Y85.740
G1 F1800 X136.259 Y124.097 E192.35955
G0 F7200 X136.259 Y123.531
G1 F1800 X98.468 Y85.740 E195.02591
G0 F7200 X99.033 Y85.740
G1 F1800 X136.259 Y122.965 E197.65237
G0 F7200 X136.259 Y122.400
G1 F1800 X99.599 Y85.740 E200.23893
G0 F7200 X83.739 Y98.164
G1 F1800 X119.834 Y134.259 E202.78563
G0 F7200 X119.269 Y134.259
G1 F1800 X83.739 Y98.730 E205.29242
G0 F7200 X83.739 Y99.296
G1 F1800 X118.703 Y134.259 E207.75929
G0 F7200 X118.137 Y134.259
G1 F1800 X83.739 Y99.861 E210.18625
G0 F7200 X83.739 Y100.427
G1 F1800 X117.572 Y134.259 E212.57332
G0 F7200 X117.006 Y134.259
G1 F1800 X83.739 Y100.993 E214.92045
G0 F7200 X83.739 Y101.558
G1 F1800 X116.440 Y134.259 E217.22768
G0 F7200 X115.875 Y134.259
G1 F1800 X83.739 Y102.124 E219.49502
G0 F7200 X83.739 Y102.690
G1 F1800 X115.309 Y134.259 E221.72241
G0 F7200 X114.743 Y134.259
G1 F1800 X83.739 Y103.255 E223.90991
G0 F7200 X83.739 Y103.821
G1 F1800 X114.177 Y134.259 E226.05748
G0 F7200 X113.612 Y134.259
G1 F1800 X83.739 Y104.387 E228.16514
G0 F7200 X83.739 Y104.953
G1 F1800 X113.046 Y134.259 E230.23288
G0 F7200 X112.480 Y134.259
G1 F1800 X83.739 Y105.518 E232.26071
G0 F7200 X83.739 Y106.084
G1 F1800 X111.915 Y134.259 E234.24864
G0 F7200 X111.349 Y134.259
G1 F1800 X83.739 Y106.650 E236.19664
G0 F7200 X83.739 Y107.215
G1 F1800 X110.783 Y134.259 E238.10474
G0 F7200 X110.218 Y134.259
G1 F1800 X83.739 Y107.781 E239.97294
G0 F7200 X83.739 Y108.347
G1 F1800 X109.652 Y134.259 E241.80121
G0 F7200 X109.086 Y134.259
G1 F1800 X83.739 Y108.912 E243.58958
G0 F7200 X83.739 Y109.478
G1 F1800 X108.521 Y134.259 E245.33805
G0 F7200 X107.955 Y134.259
G1 F1800 X83.739 Y110.044 E247.04658
G0 F7200 X83.739 Y110.609
G1 F1800 X107.389 Y134.259 E248.71522
G0 F7200 X106.824 Y134.259
G1 F1800 X83.739 Y111.175 E250.34395
G0 F7200 X83.739 Y111.741
G1 F1800 X106.258 Y134.259 E251.93275
G0 F7200 X105.692 Y134.259
G1 F1800 X83.739 Y112.306 E253.48166
G0 F7200 X83.739 Y112.872
G1 F1800 X105.126 Y134.259 E254.99063
G0 F7200 X104.561 Y134.259
G1 F1800 X83.739 Y113.438 E256.45970
G0 F7200 X83.739 Y114.003
G1 F1800 X103.995 Y134.259 E257.88887
G0 F7200 X103.429 Y134.259
G1 F1800 X83.739 Y114.569 E259.27810
G0 F7200 X83.739 Y115.135
G1 F1800 X102.864 Y134.259 E260.62744
G0 F7200 X102.298 Y134.259
G1 F1800 X83.739 Y115.701 E261.93684
G0 F7200 X83.739 Y116.266
G1 F1800 X101.732 Y134.259 E263.20634
G0 F7200 X101.167 Y134.259
G1 F1800 X83.739 Y116.832 E264.43595
G0 F7200 X83.739 Y117.398
G1 F1800 X100.601 Y134.259 E265.62562
G0 F7200 X100.035 Y134.259
G1 F1800 X83.739 Y117.963 E266.77539
G0 F7200 X83.739 Y118.529
G1 F1800 X99.470 Y134.259 E267.88526
G0 F7200 X98.904 Y134.259
G1 F1800 X83.739 Y119.095 E268.95520
G0 F7200 X83.739 Y119.660
G1 F1800 X98.338 Y134.259 E269.98524
G0 F7200 X97.773 Y134.259
G1 F1800 X83.739 Y120.226 E270.97538
G0 F7200 X83.739 Y120.792
G1 F1800 X97.207 Y134.259 E271.92558
G0 F7200 X96.641 Y134.259
G1 F1800 X83.739 Y121.357 E272.83589
G0 F7200 X83.739 Y121.923
G1 F1800 X96.076 Y134.259 E273.70629
G0 F7200 X95.510 Y134.259
G1 F1800 X83.739 Y122.489 E274.53677
G0 F7200 X83.739 Y123.054
G1 F1800 X94.944 Y134.259 E275.32734
G0 F7200 X94.378 Y134.259
G1 F1800 X83.739 Y123.620 E276.07798
G0 F7200 X83.739 Y124.186
G1 F1800 X93.813 Y134.259 E276.78872
G0 F7200 X93.247 Y134.259
G1 F1800 X83.739 Y124.752 E277.45952
G0 F7200 X83.739 Y125.317
G1 F1800 X92.681 Y134.259 E278.09043
G0 F7200 X92.116 Y134.259
G1 F1800 X83.739 Y125.883 E278.68144
G0 F7200 X83.739 Y126.449
G1 F1800 X91.550 Y134.259 E279.23251
G0 F7200 X90.984 Y134.259
G1 F1800 X83.739 Y127.014 E279.74368
G0 F7200 X83.739 Y127.580
G1 F1800 X90.419 Y134.259 E280.21496
G0 F7200 X89.853 Y134.259
G1 F1800 X83.739 Y128.146 E280.64630
G0 F7200 X83.739 Y128.711
G1 F1800 X89.287 Y134.259 E281.03774
G0 F7200 X88.722 Y134.259
G1 F1800 X83.739 Y129.277 E281.38928
G0 F7200 X83.739 Y129.843
G1 F1800 X88.156 Y134.259 E281.70089
G0 F7200 X87.590 Y134.259
G1 F1800 X83.739 Y130.408 E281.97260
G0 F7200 X83.739 Y130.974
G1 F1800 X87.025 Y134.259 E282.20441
G0 F7200 X86.459 Y134.259
G1 F1800 X83.739 Y131.540 E282.39628
G0 F7200 X83.739 Y132.105
G1 F1800 X85.893 Y134.259 E282.54826
G0 F7200 X85.327 Y134.259
G1 F1800 X83.739 Y132.671 E282.66030
G0 F7200 X83.739 Y133.237
G1 F1800 X84.762 Y134.259 E282.73245
G0 F7200 X84.196 Y134.259
G1 F1800 X83.739 Y133.802 E282.76469
G0 F7200 X100.165 Y85.740
G1 F1800 X136.259 Y121.834 E285.31132
G0 F7200 X136.259 Y121.268
G1 F1800 X100.730 Y85.740 E287.81804
G0 F7200 X101.296 Y85.740
G1 F1800 X136.259 Y120.703 E290.28487
G0 F7200 X136.259 Y120.137
G1 F1800 X101.862 Y85.740 E292.71177
G0 F7200 X102.427 Y85.740
G1 F1800 X136.259 Y119.571 E295.09876
G0 F7200 X136.259 Y119.006
G1 F1800 X102.993 Y85.740 E297.44586
G0 F7200 X103.559 Y85.740
G1 F1800 X136.259 Y118.440 E299.75302
G0 F7200 X136.259 Y117.874
G1 F1800 X104.125 Y85.740 E302.02025
G0 F7200 X104.690 Y85.740
G1 F1800 X136.259 Y117.309 E304.24761
G0 F7200 X136.259 Y116.743
G1 F1800 X105.256 Y85.740 E306.43504
G0 F7200 X105.822 Y85.740
G1 F1800 X136.259 Y116.177 E308.58253
G0 F7200 X136.259 Y115.611
G1 F1800 X106.387 Y85.740 E310.69013
G0 F7200 X106.953 Y85.740
G1 F1800 X136.259 Y115.046 E312.75783
G0 F7200 X136.259 Y114.480
G1 F1800 X107.519 Y85.740 E314.78559
G0 F7200 X108.084 Y85.740
G1 F1800 X136.259 Y113.914 E316.77345
G0 F7200 X136.259 Y113.349
G1 F1800 X108.650 Y85.740 E318.72141
G0 F7200 X109.216 Y85.740
G1 F1800 X136.259 Y112.783 E320.62944
G0 F7200 X136.259 Y112.217
G1 F1800 X109.781 Y85.740 E322.49758
G0 F7200 X110.347 Y85.740
G1 F1800 X136.259 Y111.652 E324.32581
G0 F7200 X136.259 Y111.086
G1 F1800 X110.913 Y85.740 E326.11410
G0 F7200 X111.478 Y85.740
G1 F1800 X136.259 Y110.520 E327.86250
G0 F7200 X136.259 Y109.955
G1 F1800 X112.044 Y85.740 E329.57100
G0 F7200 X112.610 Y85.740
G1 F1800 X136.259 Y109.389 E331.23957
G0 F7200 X136.259 Y108.823
G1 F1800 X113.175 Y85.740 E332.86823
G0 F7200 X113.741 Y85.740
G1 F1800 X136.259 Y108.258 E334.45700
G0 F7200 X136.259 Y107.692
G1 F1800 X114.307 Y85.740 E336.00583
G0 F7200 X114.873 Y85.740
G1 F1800 X136.259 Y107.126 E337.51473
G0 F7200 X136.259 Y106.560
G1 F1800 X115.438 Y85.740 E338.98373
G0 F7200 X116.004 Y85.740
G1 F1800 X136.259 Y105.995 E340.41283
G0 F7200 X136.259 Y105.429
G1 F1800 X116.570 Y85.740 E341.80199
G0 F7200 X117.135 Y85.740
G1 F1800 X136.259 Y104.863 E343.15126
G0 F7200 X136.259 Y104.298
G1 F1800 X117.701 Y85.740 E344.46062
G0 F7200 X118.267 Y85.740
G1 F1800 X136.259 Y103.732 E345.73006
G0 F7200 X136.259 Y103.166
G1 F1800 X118.832 Y85.740 E346.95959
G0 F7200 X119.398 Y85.740
G1 F1800 X136.259 Y102.601 E348.14923
G0 F7200 X136.259 Y102.035
G1 F1800 X119.964 Y85.740 E349.29893
G0 F7200 X120.529 Y85.740
G1 F1800 X136.259 Y101.469 E350.40873
G0 F7200 X136.259 Y100.904
G1 F1800 X121.095 Y85.740 E351.47863
G0 F7200 X121.661 Y85.740
G1 F1800 X136.259 Y100.338 E352.50860
G0 F7200 X136.259 Y99.772
G1 F1800 X122.226 Y85.740 E353.49867
G0 F7200 X122.792 Y85.740
G1 F1800 X136.259 Y99.207 E354.44884
G0 F7200 X136.259 Y98.641
G1 F1800 X123.358 Y85.740 E355.35907
G0 F7200 X123.923 Y85.740
G1 F1800 X136.259 Y98.075 E356.22941
G0 F7200 X136.259 Y97.510
G1 F1800 X124.489 Y85.740 E357.05984
G0 F7200 X125.055 Y85.740
G1 F1800 X136.259 Y96.944 E357.85035
G0 F7200 X136.259 Y96.378
G1 F1800 X125.621 Y85.740 E358.60092
G0 F7200 X126.186 Y85.740
G1 F1800 X136.259 Y95.812 E359.31158
G0 F7200 X136.259 Y95.247
G1 F1800 X126.752 Y85.740 E359.98235
G0 F7200 X127.318 Y85.740
G1 F1800 X136.259 Y94.681 E360.61319
G0 F7200 X136.259 Y94.115
G1 F1800 X127.883 Y85.740 E361.20413
G0 F7200 X128.449 Y85.740
G1 F1800 X136.259 Y93.550 E361.75516
G0 F7200 X136.259 Y92.984
G1 F1800 X129.015 Y85.740 E362.26627
G0 F7200 X129.580 Y85.740
G1 F1800 X136.259 Y92.418 E362.73747
G0 F7200 X136.259 Y91.853
G1 F1800 X130.146 Y85.740 E363.16878
G0 F7200 X130.712 Y85.740
G1 F1800 X136.259 Y91.287 E363.56015
G0 F7200 X136.259 Y90.721
G1 F1800 X131.277 Y85.740 E363.91162
G0 F7200 X131.843 Y85.740
G1 F1800 X136.259 Y90.156 E364.22319
G0 F7200 X136.259 Y89.590
G1 F1800 X132.409 Y85.740 E364.49483
G0 F7200 X132.974 Y85.740
G1 F1800 X136.259 Y89.024 E364.72657
G0 F7200 X136.259 Y88.459
G1 F1800 X133.540 Y85.740 E364.91841
G0 F7200 X134.106 Y85.740
G1 F1800 X136.259 Y87.893 E365.07032
G0 F7200 X136.259 Y87.327
G1 F1800 X134.672 Y85.740 E365.18229
G0 F7200 X135.237 Y85.740
G1 F1800 X136.259 Y86.762 E365.25440
G0 F7200 X136.259 Y86.196
G1 F1800 X135.803 Y85.740 E365.28657
;LAYER:1
M106 S63
G0 F7200 X135.960 Y85.600 Z0.500
;TYPE:WALL-INNER
G1 F2820 X136.104 Y85.620 E365.29140
G1 X136.200 Y85.659 E365.29485
G1 X136.280 Y85.722 E365.29824
G1 X136.341 Y85.801 E365.30156
G1 X136.380 Y85.896 E365.30497
G1 X136.400 Y86.043 E365.30991
G1 X136.400 Y133.956 E366.90350
G1 X136.380 Y134.105 E366.90850
G1 X136.343 Y134.196 E366.91177
G1 X136.280 Y134.277 E366.91518
G1 X136.196 Y134.343 E366.91873
G1 X136.105 Y134.380 E366.92200
G1 X135.956 Y134.400 E366.92700
G1 X84.043 Y134.400 E368.65363
G1 X83.896 Y134.380 E368.65857
G1 X83.801 Y134.341 E368.66198
G1 X83.721 Y134.279 E368.66535
G1 X83.659 Y134.199 E368.66872
G1 X83.619 Y134.102 E368.67221
G1 X83.600 Y133.960 E368.67697
