;Generated with Cura_SteamEngine 15.05
M140 S50 ; Set bed temperature
M104 T0 S200 ; Set extruder temperature
; Default start code
G28 ; Home extruder
M851 Z-9.9 ; Y offset
G29 ; Nevellieren
G1 Z15 F100
M107 ; Turn off fan
G90 ; Absolute positioning
G82 ; Extruder in absolute mode
G92 E0 ; Reset extruder position
M190 S50 ; Wait for bed to reach temperature
M109 T0 S200 ; Wait for all used extruders to reach temperature
;Layer count: 20
;LAYER:0
M107
G0 F7200 X75.730 Y77.730 Z0.300
;TYPE:SKIRT
G1 F1800 X78.176 Y75.861 E0.15358
G1 X80.991 Y74.704 E0.30542
G1 X83.307 Y74.400 E0.42196
G1 X136.695 Y74.400 E3.08549
G1 X139.002 Y74.704 E3.20159
G1 X141.829 Y75.861 E3.35398
G1 X144.276 Y77.740 E3.50790
G1 X146.138 Y80.176 E3.66087
G1 X147.287 Y82.972 E3.81168
G1 X147.600 Y85.287 E3.92823
G1 X147.600 Y134.822 E6.39954
G1 X147.235 Y137.162 E6.51770
G1 X146.152 Y139.786 E6.65932
G1 X145.291 Y140.934 E6.73091
G1 X144.223 Y142.320 E6.81821
G1 X143.070 Y143.185 E6.89012
G1 X141.836 Y144.136 E6.96784
G1 X139.021 Y145.287 E7.11957
G1 X136.716 Y145.600 E7.23562
G1 X83.287 Y145.600 E9.90121
G1 X80.972 Y145.287 E10.01775
G1 X78.176 Y144.138 E10.16857
G1 X75.740 Y142.276 E10.32154
G1 X73.861 Y139.829 E10.47546
G1 X72.704 Y137.002 E10.62785
G1 X72.400 Y134.695 E10.74394
G1 X72.400 Y85.307 E13.20792
G1 X72.704 Y82.991 E13.32446
G1 X73.861 Y80.176 E13.47630
G1 X75.730 Y77.730 E13.62988
G0 F7200 X76.016 Y78.016
G1 F1800 X78.377 Y76.210 E13.77818
G1 X81.095 Y75.094 E13.92476
G1 X83.333 Y74.800 E14.03738
G1 X136.669 Y74.800 E16.69832
G1 X138.899 Y75.094 E16.81054
G1 X141.628 Y76.210 E16.95763
G1 X143.991 Y78.025 E17.10629
G1 X145.789 Y80.377 E17.25399
G1 X146.898 Y83.077 E17.39961
G1 X147.200 Y85.314 E17.51223
G1 X147.200 Y134.791 E19.98065
G1 X146.847 Y137.053 E20.09486
G1 X145.801 Y139.586 E20.23159
G1 X144.972 Y140.692 E20.30055
G1 X143.940 Y142.032 E20.38493
G1 X142.872 Y142.833 E20.45153
G1 X141.634 Y143.786 E20.52947
G1 X138.917 Y144.898 E20.67594
G1 X136.689 Y145.200 E20.78811
G1 X83.314 Y145.200 E23.45100
G1 X81.077 Y144.898 E23.56362
G1 X78.377 Y143.789 E23.70924
G1 X76.025 Y141.991 E23.85694
G1 X74.210 Y139.628 E24.00560
G1 X73.094 Y136.899 E24.15269
G1 X72.800 Y134.669 E24.26491
G1 X72.800 Y85.333 E26.72629
G1 X73.094 Y83.095 E26.83890
G1 X74.210 Y80.377 E26.98549
G1 X76.016 Y78.016 E27.13379
G1 F6000 E22.13379
G0 F7200 X83.720 Y85.720
;TYPE:WALL-INNER
G1 F6000 E27.13379
G1 F1800 X83.801 Y85.658 E27.13888
G1 X83.896 Y85.619 E27.14400
G1 X84.040 Y85.600 E27.15125
G1 X135.960 Y85.600 E29.74155
G1 X136.104 Y85.619 E29.74880
G1 X136.198 Y85.657 E29.75386
G1 X136.278 Y85.719 E29.75890
G1 X136.341 Y85.801 E29.76406
G1 X136.380 Y85.896 E29.76919
G1 X136.400 Y86.043 E29.77659
G1 X136.400 Y133.953 E32.16683
G1 X136.374 Y134.118 E32.17516
G1 X136.340 Y134.201 E32.17964
G1 X136.281 Y134.277 E32.18444
G1 X136.197 Y134.342 E32.18974
G1 X136.105 Y134.380 E32.19470
G1 X135.956 Y134.400 E32.20220
G1 X84.043 Y134.400 E34.79215
G1 X83.896 Y134.380 E34.79955
G1 X83.801 Y134.341 E34.80468
G1 X83.719 Y134.278 E34.80984
G1 X83.657 Y134.198 E34.81489
G1 X83.619 Y134.104 E34.81994
G1 X83.600 Y133.960 E34.82719
G1 X83.600 Y86.040 E37.21793
G1 X83.619 Y85.896 E37.22517
G1 X83.658 Y85.801 E37.23030
G1 X83.720 Y85.720 E37.23539
G0 F7200 X83.200 Y86.011
;TYPE:WALL-OUTER
G1 F1800 X83.228 Y85.794 E37.24630
G1 X83.308 Y85.600 E37.25677
G1 X83.435 Y85.435 E37.26716
G1 X83.600 Y85.308 E37.27755
G1 X83.794 Y85.228 E37.28802
G1 X84.011 Y85.200 E37.29893
G1 X135.989 Y85.200 E39.89213
G1 X136.205 Y85.228 E39.90299
G1 X136.398 Y85.307 E39.91340
G1 X136.566 Y85.436 E39.92396
G1 X136.691 Y85.600 E39.93425
G1 X136.770 Y85.794 E39.94470
G1 X136.800 Y86.012 E39.95568
G1 X136.800 Y133.982 E42.34891
G1 X136.761 Y134.229 E42.36139
G1 X136.691 Y134.400 E42.37061
G1 X136.566 Y134.563 E42.38086
G1 X136.401 Y134.691 E42.39127
G1 X136.205 Y134.770 E42.40182
G1 X135.988 Y134.800 E42.41275
G1 X84.012 Y134.800 E45.00584
G1 X83.794 Y134.770 E45.01682
G1 X83.600 Y134.691 E45.02727
G1 X83.436 Y134.566 E45.03756
G1 X83.307 Y134.398 E45.04812
G1 X83.228 Y134.205 E45.05853
G1 X83.200 Y133.989 E45.06939
G1 X83.200 Y86.011 E47.46303
G0 F7200 X83.739 Y86.285
;TYPE:SKIN
G1 F1800 X131.714 Y134.259 E50.84789
G0 F7200 X132.279 Y134.259
G1 F1800 X83.831 Y85.810 E54.26619
G0 F7200 X84.326 Y85.740
G1 F1800 X132.845 Y134.259 E57.68947
G0 F7200 X133.411 Y134.259
G1 F1800 X84.891 Y85.740 E61.11278
G0 F7200 X85.457 Y85.740
G1 F1800 X133.976 Y134.259 E64.53606
G0 F7200 X134.542 Y134.259
G1 F1800 X86.023 Y85.740 E67.95934
G0 F7200 X86.588 Y85.740
G1 F1800 X135.108 Y134.259 E71.38265
G0 F7200 X135.673 Y134.259
G1 F1800 X87.154 Y85.740 E74.80593
G0 F7200 X87.720 Y85.740
G1 F1800 X136.167 Y134.187 E78.22412
G0 F7200 X136.259 Y133.713
G1 F1800 X88.285 Y85.740 E81.60891
G0 F7200 X88.851 Y85.740
G1 F1800 X136.259 Y133.148 E84.95380
G0 F7200 X136.259 Y132.582
G1 F1800 X89.417 Y85.740 E88.25876
G0 F7200 X89.982 Y85.740
G1 F1800 X136.259 Y132.016 E91.52382
G0 F7200 X136.259 Y131.451
G1 F1800 X90.548 Y85.740 E94.74897
G0 F7200 X91.114 Y85.740
G1 F1800 X136.259 Y130.885 E97.93420
G0 F7200 X136.259 Y130.319
G1 F1800 X91.679 Y85.740 E101.07952
G0 F7200 X92.245 Y85.740
G1 F1800 X136.259 Y129.754 E104.18495
G0 F7200 X136.259 Y129.188
G1 F1800 X92.811 Y85.740 E107.25044
G0 F7200 X93.376 Y85.740
G1 F1800 X136.259 Y128.622 E110.27603
G0 F7200 X136.259 Y128.057
G1 F1800 X93.942 Y85.740 E113.26172
G0 F7200 X94.508 Y85.740
G1 F1800 X136.259 Y127.491 E116.20748
G0 F7200 X136.259 Y126.925
G1 F1800 X95.074 Y85.740 E119.11331
G0 F7200 X95.639 Y85.740
G1 F1800 X136.259 Y126.359 E121.97923
G0 F7200 X136.259 Y125.794
G1 F1800 X96.205 Y85.740 E124.80526
G0 F7200 X96.771 Y85.740
G1 F1800 X136.259 Y125.228 E127.59135
G0 F7200 X136.259 Y124.662
G1 F1800 X97.336 Y85.740 E130.33754
G0 F7200 X97.902 Y85.740
G1 F1800 X136.259 Y124.097 E133.04384
G0 F7200 X136.259 Y123.531
G1 F1800 X98.468 Y85.740 E135.71019
G0 F7200 X99.033 Y85.740
G1 F1800 X136.259 Y122.965 E138.33666
G0 F7200 X136.259 Y122.400
G1 F1800 X99.599 Y85.740 E140.92322
G0 F7200 X83.739 Y86.851
G1 F1800 X131.148 Y134.259 E144.26814
G0 F7200 X130.582 Y134.259
G1 F1800 X83.739 Y87.416 E147.57317
G0 F7200 X83.739 Y87.982
G1 F1800 X130.017 Y134.259 E150.83830
G0 F7200 X129.451 Y134.259
G1 F1800 X83.739 Y88.548 E154.06349
G0 F7200 X83.739 Y89.113
G1 F1800 X128.885 Y134.259 E157.24878
G0 F7200 X128.320 Y134.259
G1 F1800 X83.739 Y89.679 E160.39418
G0 F7200 X83.739 Y90.245
G1 F1800 X127.754 Y134.259 E163.49964
G0 F7200 X127.188 Y134.259
G1 F1800 X83.739 Y90.810 E166.56520
G0 F7200 X83.739 Y91.376
G1 F1800 X126.623 Y134.259 E169.59086
G0 F7200 X126.057 Y134.259
G1 F1800 X83.739 Y91.942 E172.57659
G0 F7200 X83.739 Y92.507
G1 F1800 X125.491 Y134.259 E175.52242
G0 F7200 X124.925 Y134.259
G1 F1800 X83.739 Y93.073 E178.42832
G0 F7200 X83.739 Y93.639
G1 F1800 X124.360 Y134.259 E181.29431
G0 F7200 X123.794 Y134.259
G1 F1800 X83.739 Y94.205 E184.12037
G0 F7200 X83.739 Y94.770
G1 F1800 X123.228 Y134.259 E186.90653
G0 F7200 X122.663 Y134.259
G1 F1800 X83.739 Y95.336 E189.65280
G0 F7200 X83.739 Y95.902
G1 F1800 X122.097 Y134.259 E192.35913
G0 F7200 X121.531 Y134.259
G1 F1800 X83.739 Y96.467 E195.02556
G0 F7200 X83.739 Y97.033
G1 F1800 X120.966 Y134.259 E197.65209
G0 F7200 X120.400 Y134.259
G1 F1800 X83.739 Y97.599 E200.23868
G0 F7200 X83.739 Y98.164
G1 F1800 X119.834 Y134.259 E202.78538
G0 F7200 X119.269 Y134.259
G1 F1800 X83.739 Y98.730 E205.29218
G0 F7200 X83.739 Y99.296
G1 F1800 X118.703 Y134.259 E207.75904
G0 F7200 X118.137 Y134.259
G1 F1800 X83.739 Y99.861 E210.18601
G0 F7200 X83.739 Y100.427
G1 F1800 X117.572 Y134.259 E212.57307
G0 F7200 X117.006 Y134.259
G1 F1800 X83.739 Y100.993 E214.92020
G0 F7200 X83.739 Y101.558
G1 F1800 X116.440 Y134.259 E217.22744
G0 F7200 X115.875 Y134.259
G1 F1800 X83.739 Y102.124 E219.49477
G0 F7200 X83.739 Y102.690
G1 F1800 X115.309 Y134.259 E221.72217
G0 F7200 X114.743 Y134.259
G1 F1800 X83.739 Y103.255 E223.90967
G0 F7200 X83.739 Y103.821
G1 F1800 X114.177 Y134.259 E226.05723
G0 F7200 X113.612 Y134.259
G1 F1800 X83.739 Y104.387 E228.16490
G0 F7200 X83.739 Y104.953
G1 F1800 X113.046 Y134.259 E230.23263
G0 F7200 X112.480 Y134.259
G1 F1800 X83.739 Y105.518 E232.26046
G0 F7200 X83.739 Y106.084
G1 F1800 X111.915 Y134.259 E234.24840
G0 F7200 X111.349 Y134.259
G1 F1800 X83.739 Y106.650 E236.19640
G0 F7200 X83.739 Y107.215
G1 F1800 X110.783 Y134.259 E238.10450
G0 F7200 X110.218 Y134.259
G1 F1800 X83.739 Y107.781 E239.97270
G0 F7200 X83.739 Y108.347
G1 F1800 X109.652 Y134.259 E241.80096
G0 F7200 X109.086 Y134.259
G1 F1800 X83.739 Y108.912 E243.58933
G0 F7200 X83.739 Y109.478
G1 F1800 X108.521 Y134.259 E245.33780
G0 F7200 X107.955 Y134.259
G1 F1800 X83.739 Y110.044 E247.04634
G0 F7200 X83.739 Y110.609
G1 F1800 X107.389 Y134.259 E248.71497
G0 F7200 X106.824 Y134.259
G1 F1800 X83.739 Y111.175 E250.34371
G0 F7200 X83.739 Y111.741
G1 F1800 X106.258 Y134.259 E251.93251
G0 F7200 X105.692 Y134.259
G1 F1800 X83.739 Y112.306 E253.48141
G0 F7200 X83.739 Y112.872
G1 F1800 X105.126 Y134.259 E254.99038
G0 F7200 X104.561 Y134.259
G1 F1800 X83.739 Y113.438 E256.45945
G0 F7200 X83.739 Y114.003
G1 F1800 X103.995 Y134.259 E257.88862
G0 F7200 X103.429 Y134.259
G1 F1800 X83.739 Y114.569 E259.27786
G0 F7200 X83.739 Y115.135
G1 F1800 X102.864 Y134.259 E260.62719
G0 F7200 X102.298 Y134.259
G1 F1800 X83.739 Y115.701 E261.93659
G0 F7200 X83.739 Y116.266
G1 F1800 X101.732 Y134.259 E263.20610
G0 F7200 X101.167 Y134.259
G1 F1800 X83.739 Y116.832 E264.43570
G0 F7200 X83.739 Y117.398
G1 F1800 X100.601 Y134.259 E265.62537
G0 F7200 X100.035 Y134.259
G1 F1800 X83.739 Y117.963 E266.77514
G0 F7200 X83.739 Y118.529
G1 F1800 X99.470 Y134.259 E267.88501
G0 F7200 X98.904 Y134.259
G1 F1800 X83.739 Y119.095 E268.95495
G0 F7200 X83.739 Y119.660
G1 F1800 X98.338 Y134.259 E269.98499
G0 F7200 X97.773 Y134.259
G1 F1800 X83.739 Y120.226 E270.97513
G0 F7200 X83.739 Y120.792
G1 F1800 X97.207 Y134.259 E271.92533
G0 F7200 X96.641 Y134.259
G1 F1800 X83.739 Y121.357 E272.83564
G0 F7200 X83.739 Y121.923
G1 F1800 X96.076 Y134.259 E273.70605
G0 F7200 X95.510 Y134.259
G1 F1800 X83.739 Y122.489 E274.53652
G0 F7200 X83.739 Y123.054
G1 F1800 X94.944 Y134.259 E275.32709
G0 F7200 X94.378 Y134.259
G1 F1800 X83.739 Y123.620 E276.07773
G0 F7200 X83.739 Y124.186
G1 F1800 X93.813 Y134.259 E276.78847
G0 F7200 X93.247 Y134.259
G1 F1800 X83.739 Y124.752 E277.45928
G0 F7200 X83.739 Y125.317
G1 F1800 X92.681 Y134.259 E278.09018
G0 F7200 X92.116 Y134.259
G1 F1800 X83.739 Y125.883 E278.68119
G0 F7200 X83.739 Y126.449
G1 F1800 X91.550 Y134.259 E279.23226
G0 F7200 X90.984 Y134.259
G1 F1800 X83.739 Y127.014 E279.74344
G0 F7200 X83.739 Y127.580
G1 F1800 X90.419 Y134.259 E280.21471
G0 F7200 X89.853 Y134.259
G1 F1800 X83.739 Y128.146 E280.64605
G0 F7200 X83.739 Y128.711
G1 F1800 X89.287 Y134.259 E281.03749
G0 F7200 X88.722 Y134.259
G1 F1800 X83.739 Y129.277 E281.38904
G0 F7200 X83.739 Y129.843
G1 F1800 X88.156 Y134.259 E281.70064
G0 F7200 X87.590 Y134.259
G1 F1800 X83.739 Y130.408 E281.97235
G0 F7200 X83.739 Y130.974
G1 F1800 X87.025 Y134.259 E282.20416
G0 F7200 X86.459 Y134.259
G1 F1800 X83.739 Y131.540 E282.39604
G0 F7200 X83.739 Y132.105
G1 F1800 X85.893 Y134.259 E282.54801
G0 F7200 X85.327 Y134.259
G1 F1800 X83.739 Y132.671 E282.66006
G0 F7200 X83.739 Y133.237
G1 F1800 X84.762 Y134.259 E282.73220
G0 F7200 X84.196 Y134.259
G1 F1800 X83.739 Y133.802 E282.76444
G0 F7200 X100.165 Y85.740
G1 F1800 X136.259 Y121.834 E285.31107
G0 F7200 X136.259 Y121.268
G1 F1800 X100.730 Y85.740 E287.81780
G0 F7200 X101.296 Y85.740
G1 F1800 X136.259 Y120.703 E290.28463
G0 F7200 X136.259 Y120.137
G1 F1800 X101.862 Y85.740 E292.71152
G0 F7200 X102.427 Y85.740
G1 F1800 X136.259 Y119.571 E295.09851
G0 F7200 X136.259 Y119.006
G1 F1800 X102.993 Y85.740 E297.44561
G0 F7200 X103.559 Y85.740
G1 F1800 X136.259 Y118.440 E299.75277
G0 F7200 X136.259 Y117.874
G1 F1800 X104.125 Y85.740 E302.02000
G0 F7200 X104.690 Y85.740
G1 F1800 X136.259 Y117.309 E304.24736
G0 F7200 X136.259 Y116.743
G1 F1800 X105.256 Y85.740 E306.43479
G0 F7200 X105.822 Y85.740
G1 F1800 X136.259 Y116.177 E308.58229
G0 F7200 X136.259 Y115.611
G1 F1800 X106.387 Y85.740 E310.68988
G0 F7200 X106.953 Y85.740
G1 F1800 X136.259 Y115.046 E312.75758
G0 F7200 X136.259 Y114.480
G1 F1800 X107.519 Y85.740 E314.78534
G0 F7200 X108.084 Y85.740
G1 F1800 X136.259 Y113.914 E316.77320
G0 F7200 X136.259 Y113.349
G1 F1800 X108.650 Y85.740 E318.72117
G0 F7200 X109.216 Y85.740
G1 F1800 X136.259 Y112.783 E320.62920
G0 F7200 X136.259 Y112.217
G1 F1800 X109.781 Y85.740 E322.49733
G0 F7200 X110.347 Y85.740
G1 F1800 X136.259 Y111.652 E324.32556
G0 F7200 X136.259 Y111.086
G1 F1800 X110.913 Y85.740 E326.11386
G0 F7200 X111.478 Y85.740
G1 F1800 X136.259 Y110.520 E327.86226
G0 F7200 X136.259 Y109.955
G1 F1800 X112.044 Y85.740 E329.57076
G0 F7200 X112.610 Y85.740
G1 F1800 X136.259 Y109.389 E331.23932
G0 F7200 X136.259 Y108.823
G1 F1800 X113.175 Y85.740 E332.86799
G0 F7200 X113.741 Y85.740
G1 F1800 X136.259 Y108.258 E334.45675
G0 F7200 X136.259 Y107.692
G1 F1800 X114.307 Y85.740 E336.00558
G0 F7200 X114.873 Y85.740
G1 F1800 X136.259 Y107.126 E337.51448
G0 F7200 X136.259 Y106.560
G1 F1800 X115.438 Y85.740 E338.98348
G0 F7200 X116.004 Y85.740
G1 F1800 X136.259 Y105.995 E340.41258
G0 F7200 X136.259 Y105.429
G1 F1800 X116.570 Y85.740 E341.80175
G0 F7200 X117.135 Y85.740
G1 F1800 X136.259 Y104.863 E343.15101
G0 F7200 X136.259 Y104.298
G1 F1800 X117.701 Y85.740 E344.46038
G0 F7200 X118.267 Y85.740
G1 F1800 X136.259 Y103.732 E345.72981
G0 F7200 X136.259 Y103.166
G1 F1800 X118.832 Y85.740 E346.95935
G0 F7200 X119.398 Y85.740
G1 F1800 X136.259 Y102.601 E348.14898
G0 F7200 X136.259 Y102.035
G1 F1800 X119.964 Y85.740 E349.29868
G0 F7200 X120.529 Y85.740
G1 F1800 X136.259 Y101.469 E350.40848
G0 F7200 X136.259 Y100.904
G1 F1800 X121.095 Y85.740 E351.47838
G0 F7200 X121.661 Y85.740
G1 F1800 X136.259 Y100.338 E352.50835
G0 F7200 X136.259 Y99.772
G1 F1800 X122.226 Y85.740 E353.49842
G0 F7200 X122.792 Y85.740
G1 F1800 X136.259 Y99.207 E354.44859
G0 F7200 X136.259 Y98.641
G1 F1800 X123.358 Y85.740 E355.35882
G0 F7200 X123.923 Y85.740
G1 F1800 X136.259 Y98.075 E356.22916
G0 F7200 X136.259 Y97.510
G1 F1800 X124.489 Y85.740 E357.05960
G0 F7200 X125.055 Y85.740
G1 F1800 X136.259 Y96.944 E357.85010
G0 F7200 X136.259 Y96.378
G1 F1800 X125.621 Y85.740 E358.60067
G0 F7200 X126.186 Y85.740
G1 F1800 X136.259 Y95.812 E359.31134
G0 F7200 X136.259 Y95.247
G1 F1800 X126.752 Y85.740 E359.98211
G0 F7200 X127.318 Y85.740
G1 F1800 X136.259 Y94.681 E360.61294
G0 F7200 X136.259 Y94.115
G1 F1800 X127.883 Y85.740 E361.20388
G0 F7200 X128.449 Y85.740
G1 F1800 X136.259 Y93.550 E361.75492
G0 F7200 X136.259 Y92.984
G1 F1800 X129.015 Y85.740 E362.26602
G0 F7200 X129.580 Y85.740
G1 F1800 X136.259 Y92.418 E362.73723
G0 F7200 X136.259 Y91.853
G1 F1800 X130.146 Y85.740 E363.16853
G0 F7200 X130.712 Y85.740
G1 F1800 X136.259 Y91.287 E363.55990
G0 F7200 X136.259 Y90.721
G1 F1800 X131.277 Y85.740 E363.91137
G0 F7200 X131.843 Y85.740
G1 F1800 X136.259 Y90.156 E364.22295
G0 F7200 X136.259 Y89.590
G1 F1800 X132.409 Y85.740 E364.49459
G0 F7200 X132.974 Y85.740
G1 F1800 X136.259 Y89.024 E364.72632
G0 F7200 X136.259 Y88.459
G1 F1800 X133.540 Y85.740 E364.91816
G0 F7200 X134.106 Y85.740
G1 F1800 X136.259 Y87.893 E365.07007
G0 F7200 X136.259 Y87.327
G1 F1800 X134.672 Y85.740 E365.18204
G0 F7200 X135.237 Y85.740
G1 F1800 X136.259 Y86.762 E365.25415
G0 F7200 X136.259 Y86.196
G1 F1800 X135.803 Y85.740 E365.28632
;LAYER:1
M106 S63
G0 F7200 X135.960 Y85.600 Z0.500
;TYPE:WALL-INNER
G1 F2820 X136.104 Y85.619 E365.29115
G1 X136.198 Y85.657 E365.29453
G1 X136.278 Y85.719 E365.29789
G1 X136.341 Y85.801 E365.30133
G1 X136.380 Y85.896 E365.30475
G1 X136.400 Y86.043 E365.30968
G1 X136.400 Y133.956 E366.90327
G1 X136.380 Y134.105 E366.90827
G1 X136.342 Y134.198 E366.91162
G1 X136.279 Y134.279 E366.91503
G1 X136.198 Y134.342 E366.91844
G1 X136.105 Y134.380 E366.92178
G1 X135.956 Y134.400 E366.92678
G1 X84.043 Y134.400 E368.65342
G1 X83.896 Y134.380 E368.65835
G1 X83.801 Y134.341 E368.66177
